static/img/kroki/f655f9322c260a8cbe4793dd7eb7e3af.svg

<?xml version="1.0" encoding="us-ascii" standalone="no"?><svg xmlns="http://www.w3.org/2000/svg" xmlns:xlink="http://www.w3.org/1999/xlink" contentStyleType="text/css" height="535px" preserveAspectRatio="none" style="width:230px;height:535px;" version="1.1" viewBox="0 0 230 535" width="230px" zoomAndPan="magnify"><defs/><g><!--class phantom_resource--><g id="elem_phantom_resource"><rect codeLine="23" fill="#3D176E" height="39.7891" id="phantom_resource" rx="2.5" ry="2.5" style="stroke:#000D19;stroke-width:0.5;" width="198" x="16" y="167.79"/><ellipse cx="31" cy="187.6845" fill="#ADD1B2" rx="11" ry="11" style="stroke:#181818;stroke-width:1.0;"/><path d="M33.9688,193.3252 Q33.3906,193.622 32.75,193.7627 Q32.1094,193.9189 31.4063,193.9189 Q28.9063,193.9189 27.5781,192.2783 Q26.2656,190.622 26.2656,187.497 Q26.2656,184.372 27.5781,182.7158 Q28.9063,181.0595 31.4063,181.0595 Q32.1094,181.0595 32.75,181.2158 Q33.4063,181.372 33.9688,181.6689 L33.9688,184.3877 Q33.3438,183.8095 32.75,183.5439 Q32.1563,183.2627 31.5313,183.2627 Q30.1875,183.2627 29.5,184.3408 Q28.8125,185.4033 28.8125,187.497 Q28.8125,189.5908 29.5,190.6689 Q30.1875,191.7314 31.5313,191.7314 Q32.1563,191.7314 32.75,191.4658 Q33.3438,191.1845 33.9688,190.6064 L33.9688,193.3252 Z " fill="#000000"/><text fill="#D9B8FF" font-family="Helvetica" font-size="17" lengthAdjust="spacing" textLength="156" x="50" y="193.5698">phantom_resource</text></g><!--class region--><g id="elem_region"><rect codeLine="26" fill="#3D176E" height="39.7891" id="region" rx="2.5" ry="2.5" style="stroke:#000D19;stroke-width:0.5;" width="95" x="67.5" y="328.58"/><ellipse cx="82.5" cy="348.4745" fill="#ADD1B2" rx="11" ry="11" style="stroke:#181818;stroke-width:1.0;"/><path d="M85.4688,354.1152 Q84.8906,354.412 84.25,354.5527 Q83.6094,354.7089 82.9063,354.7089 Q80.4063,354.7089 79.0781,353.0683 Q77.7656,351.412 77.7656,348.287 Q77.7656,345.162 79.0781,343.5058 Q80.4063,341.8495 82.9063,341.8495 Q83.6094,341.8495 84.25,342.0058 Q84.9063,342.162 85.4688,342.4589 L85.4688,345.1777 Q84.8438,344.5995 84.25,344.3339 Q83.6563,344.0527 83.0313,344.0527 Q81.6875,344.0527 81,345.1308 Q80.3125,346.1933 80.3125,348.287 Q80.3125,350.3808 81,351.4589 Q81.6875,352.5214 83.0313,352.5214 Q83.6563,352.5214 84.25,352.2558 Q84.8438,351.9745 85.4688,351.3964 L85.4688,354.1152 Z " fill="#000000"/><text fill="#D9B8FF" font-family="Helvetica" font-size="17" lengthAdjust="spacing" textLength="53" x="101.5" y="354.3598">region</text></g><!--class resource--><g id="elem_resource"><rect codeLine="29" fill="#3D176E" height="39.7891" id="resource" rx="2.5" ry="2.5" style="stroke:#000D19;stroke-width:0.5;" width="113" x="58.5" y="7"/><ellipse cx="73.5" cy="26.8945" fill="#ADD1B2" rx="11" ry="11" style="stroke:#181818;stroke-width:1.0;"/><path d="M76.4688,32.5352 Q75.8906,32.832 75.25,32.9727 Q74.6094,33.1289 73.9063,33.1289 Q71.4063,33.1289 70.0781,31.4883 Q68.7656,29.832 68.7656,26.707 Q68.7656,23.582 70.0781,21.9258 Q71.4063,20.2695 73.9063,20.2695 Q74.6094,20.2695 75.25,20.4258 Q75.9063,20.582 76.4688,20.8789 L76.4688,23.5977 Q75.8438,23.0195 75.25,22.7539 Q74.6563,22.4727 74.0313,22.4727 Q72.6875,22.4727 72,23.5508 Q71.3125,24.6133 71.3125,26.707 Q71.3125,28.8008 72,29.8789 Q72.6875,30.9414 74.0313,30.9414 Q74.6563,30.9414 75.25,30.6758 Q75.8438,30.3945 76.4688,29.8164 L76.4688,32.5352 Z " fill="#000000"/><text fill="#D9B8FF" font-family="Helvetica" font-size="17" lengthAdjust="spacing" textLength="71" x="92.5" y="32.7798">resource</text></g><!--class vsphere_data_center--><g id="elem_vsphere_data_center"><rect codeLine="32" fill="#3D176E" height="39.7891" id="vsphere_data_center" rx="2.5" ry="2.5" style="stroke:#000D19;stroke-width:0.5;" width="216" x="7" y="489.37"/><ellipse cx="22" cy="509.2645" fill="#ADD1B2" rx="11" ry="11" style="stroke:#181818;stroke-width:1.0;"/><path d="M24.9688,514.9052 Q24.3906,515.202 23.75,515.3427 Q23.1094,515.4989 22.4063,515.4989 Q19.9063,515.4989 18.5781,513.8583 Q17.2656,512.202 17.2656,509.077 Q17.2656,505.952 18.5781,504.2958 Q19.9063,502.6395 22.4063,502.6395 Q23.1094,502.6395 23.75,502.7958 Q24.4063,502.952 24.9688,503.2489 L24.9688,505.9677 Q24.3438,505.3895 23.75,505.1239 Q23.1563,504.8427 22.5313,504.8427 Q21.1875,504.8427 20.5,505.9208 Q19.8125,506.9833 19.8125,509.077 Q19.8125,511.1708 20.5,512.2489 Q21.1875,513.3114 22.5313,513.3114 Q23.1563,513.3114 23.75,513.0458 Q24.3438,512.7645 24.9688,512.1864 L24.9688,514.9052 Z " fill="#000000"/><text fill="#D9B8FF" font-family="Helvetica" font-size="17" lengthAdjust="spacing" textLength="174" x="41" y="515.1498">vsphere_data_center</text></g><!--reverse link resource to phantom_resource--><g id="link_resource_phantom_resource"><path codeLine="35" d="M115,65.05 C115,95.57 115,136.9 115,167.47 " fill="none" id="resource-backto-phantom_resource" style="stroke:#FFAF37;stroke-width:2.0;"/><polygon fill="none" points="115,47.05,109,65.05,121,65.05,115,47.05" style="stroke:#FFAF37;stroke-width:2.0;"/></g><!--reverse link phantom_resource to region--><g id="link_phantom_resource_region"><path codeLine="36" d="M115,225.84 C115,256.36 115,297.69 115,328.25 " fill="none" id="phantom_resource-backto-region" style="stroke:#FFAF37;stroke-width:2.0;"/><polygon fill="none" points="115,207.84,109,225.84,121,225.84,115,207.84" style="stroke:#FFAF37;stroke-width:2.0;"/></g><!--reverse link region to vsphere_data_center--><g id="link_region_vsphere_data_center"><path codeLine="37" d="M115,386.63 C115,417.15 115,458.48 115,489.04 " fill="none" id="region-backto-vsphere_data_center" style="stroke:#FFAF37;stroke-width:2.0;"/><polygon fill="none" points="115,368.63,109,386.63,121,386.63,115,368.63" style="stroke:#FFAF37;stroke-width:2.0;"/></g><!--SRC=[XP9DQm8n48Rl-HK1py9QQLNeHONINgJKtcNSJDpWRh9CPXNxyT-xkbRYne_hl0zvtXcI6OKIYv9tii1YYUI5NnjR0a4XnqHkEtMv8zdH6dH_q0vVdEMxm0mAbA-ORv1D2ctYCpFfsgBtyY689f2kL-GggvhdcS3wEaBB0JNDmVinCvbbnHYKKQFbKEissNwqqrUzmHD6c2E5T4II956zKHkvgxgvzucOco-KlV1eCySOrOmK1-fcopqHb8mM_S-lTdm7fOnToSTWzj5q8ejqDfzdeDnsJsl8VQZnZ8IEToLEewrmD5HwS15-kmQBT7ywMMPWsHKBGkygIb5-2_5xp0XNnjdpIKnjV9dLjeK2XaLQ_wfwfKDyWfz_kjrkP1AHkk4QgpZAcza5X_W3]--></g></svg>

<svg xmlns="http://www.w3.org/2000/svg" width="230" height="535" viewBox="0 0 230 535"><rect width="198" height="39.789" x="16" y="167.79" fill="#3D176E" rx="2.5" ry="2.5" style="stroke:#000d19;stroke-width:.5"/><circle cx="31" cy="187.685" r="11" fill="#ADD1B2" style="stroke:#181818;stroke-width:1"/><path d="M33.969 193.325q-.578.297-1.219.438-.64.156-1.344.156-2.5 0-3.828-1.64-1.312-1.657-1.312-4.782t1.312-4.781q1.328-1.656 3.828-1.656.703 0 1.344.156.656.156 1.219.453v2.719q-.625-.578-1.219-.844-.594-.281-1.219-.281-1.343 0-2.031 1.078-.687 1.062-.687 3.156t.687 3.172q.688 1.062 2.031 1.062.625 0 1.219-.265.594-.281 1.219-.86z"/><text x="50" y="193.57" fill="#D9B8FF" font-family="Helvetica" font-size="17" textLength="156">phantom_resource</text><rect width="95" height="39.789" x="67.5" y="328.58" fill="#3D176E" rx="2.5" ry="2.5" style="stroke:#000d19;stroke-width:.5"/><circle cx="82.5" cy="348.474" r="11" fill="#ADD1B2" style="stroke:#181818;stroke-width:1"/><path d="M85.469 354.115q-.578.297-1.219.438-.64.156-1.344.156-2.5 0-3.828-1.64-1.312-1.657-1.312-4.782t1.312-4.781q1.328-1.656 3.828-1.656.703 0 1.344.156.656.156 1.219.453v2.719q-.625-.579-1.219-.844-.594-.281-1.219-.281-1.344 0-2.031 1.078-.687 1.062-.687 3.156t.687 3.172q.688 1.062 2.031 1.062.625 0 1.219-.265.594-.281 1.219-.86z"/><text x="101.5" y="354.36" fill="#D9B8FF" font-family="Helvetica" font-size="17" textLength="53">region</text><rect width="113" height="39.789" x="58.5" y="7" fill="#3D176E" rx="2.5" ry="2.5" style="stroke:#000d19;stroke-width:.5"/><circle cx="73.5" cy="26.895" r="11" fill="#ADD1B2" style="stroke:#181818;stroke-width:1"/><path d="M76.469 32.535q-.578.297-1.219.438-.64.156-1.344.156-2.5 0-3.828-1.64-1.312-1.657-1.312-4.782t1.312-4.781q1.328-1.656 3.828-1.656.703 0 1.344.156.656.156 1.219.453v2.719q-.625-.578-1.219-.844-.594-.281-1.219-.281-1.344 0-2.031 1.078-.687 1.062-.687 3.156T72 29.879q.688 1.062 2.031 1.062.625 0 1.219-.265.594-.281 1.219-.86z"/><text x="92.5" y="32.78" fill="#D9B8FF" font-family="Helvetica" font-size="17" textLength="71">resource</text><rect width="216" height="39.789" x="7" y="489.37" fill="#3D176E" rx="2.5" ry="2.5" style="stroke:#000d19;stroke-width:.5"/><circle cx="22" cy="509.264" r="11" fill="#ADD1B2" style="stroke:#181818;stroke-width:1"/><path d="M24.969 514.905q-.578.297-1.219.438-.64.156-1.344.156-2.5 0-3.828-1.64-1.312-1.657-1.312-4.782t1.312-4.781q1.328-1.656 3.828-1.656.703 0 1.344.156.656.156 1.219.453v2.719q-.625-.579-1.219-.844-.594-.281-1.219-.281-1.343 0-2.031 1.078-.687 1.062-.687 3.156t.687 3.172q.688 1.062 2.031 1.062.625 0 1.219-.265.594-.282 1.219-.86z"/><text x="41" y="515.15" fill="#D9B8FF" font-family="Helvetica" font-size="17" textLength="174">vsphere_data_center</text><path fill="none" d="M115 65.05v102.42m0-120.42-6 18h12zm0 178.79v102.41m0-120.41-6 18h12zm0 178.79v102.41m0-120.41-6 18h12z" style="stroke:#ffaf37;stroke-width:2"/></svg>
